polaris-icons/icons/newicons/FooterMajor.svg

<svg width="20" height="20" viewBox="0 0 20 20" fill="none" xmlns="http://www.w3.org/2000/svg">
<path fill-rule="evenodd" clip-rule="evenodd" d="M15.5 14.5H4.5L4.5 15.5H15.5V14.5ZM4.5 13C3.67157 13 3 13.6716 3 14.5V15.5C3 16.3284 3.67157 17 4.5 17H15.5C16.3284 17 17 16.3284 17 15.5V14.5C17 13.6716 16.3284 13 15.5 13H4.5Z" fill="black"/>
<path fill-rule="evenodd" clip-rule="evenodd" d="M3 4.75C3 3.7835 3.7835 3 4.75 3H5.75C6.16421 3 6.5 3.33579 6.5 3.75C6.5 4.16421 6.16421 4.5 5.75 4.5H4.75C4.61193 4.5 4.5 4.61193 4.5 4.75V5.75C4.5 6.16421 4.16421 6.5 3.75 6.5C3.33579 6.5 3 6.16421 3 5.75V4.75Z" fill="black"/>
<path fill-rule="evenodd" clip-rule="evenodd" d="M4.75 11.75C3.7835 11.75 3 10.9665 3 10L3 9C3 8.58579 3.33579 8.25 3.75 8.25C4.16421 8.25 4.5 8.58579 4.5 9V10C4.5 10.1381 4.61193 10.25 4.75 10.25H5.75C6.16421 10.25 6.5 10.5858 6.5 11C6.5 11.4142 6.16421 11.75 5.75 11.75H4.75Z" fill="black"/>
<path fill-rule="evenodd" clip-rule="evenodd" d="M15.25 3C16.2165 3 17 3.7835 17 4.75V5.75C17 6.16421 16.6642 6.5 16.25 6.5C15.8358 6.5 15.5 6.16421 15.5 5.75V4.75C15.5 4.61193 15.3881 4.5 15.25 4.5H14.25C13.8358 4.5 13.5 4.16421 13.5 3.75C13.5 3.33579 13.8358 3 14.25 3L15.25 3Z" fill="black"/>
<path fill-rule="evenodd" clip-rule="evenodd" d="M17 10C17 10.9665 16.2165 11.75 15.25 11.75H14.25C13.8358 11.75 13.5 11.4142 13.5 11C13.5 10.5858 13.8358 10.25 14.25 10.25H15.25C15.3881 10.25 15.5 10.1381 15.5 10V9C15.5 8.58579 15.8358 8.25 16.25 8.25C16.6642 8.25 17 8.58579 17 9V10Z" fill="black"/>
<path fill-rule="evenodd" clip-rule="evenodd" d="M11.75 3.75C11.75 4.16421 11.4142 4.5 11 4.5L9 4.5C8.58579 4.5 8.25 4.16421 8.25 3.75C8.25 3.33579 8.58579 3 9 3L11 3C11.4142 3 11.75 3.33579 11.75 3.75Z" fill="black"/>
<path fill-rule="evenodd" clip-rule="evenodd" d="M11.75 11C11.75 11.4142 11.4142 11.75 11 11.75H9C8.58579 11.75 8.25 11.4142 8.25 11C8.25 10.5858 8.58579 10.25 9 10.25H11C11.4142 10.25 11.75 10.5858 11.75 11Z" fill="black"/>
</svg>

<svg viewBox="0 0 20 20" fill="none" xmlns="http://www.w3.org/2000/svg"><path fill-rule="evenodd" clip-rule="evenodd" d="M15.5 14.5h-11v1h11v-1Zm-11-1.5a1.5 1.5 0 0 0-1.5 1.5v1a1.5 1.5 0 0 0 1.5 1.5h11a1.5 1.5 0 0 0 1.5-1.5v-1a1.5 1.5 0 0 0-1.5-1.5h-11Z" fill="#000"/><path fill-rule="evenodd" clip-rule="evenodd" d="M3 4.75c0-.966.784-1.75 1.75-1.75h1a.75.75 0 0 1 0 1.5h-1a.25.25 0 0 0-.25.25v1a.75.75 0 0 1-1.5 0v-1Z" fill="#000"/><path fill-rule="evenodd" clip-rule="evenodd" d="M4.75 11.75a1.75 1.75 0 0 1-1.75-1.75v-1a.75.75 0 0 1 1.5 0v1c0 .138.112.25.25.25h1a.75.75 0 0 1 0 1.5h-1Z" fill="#000"/><path fill-rule="evenodd" clip-rule="evenodd" d="M15.25 3c.966 0 1.75.784 1.75 1.75v1a.75.75 0 0 1-1.5 0v-1a.25.25 0 0 0-.25-.25h-1a.75.75 0 0 1 0-1.5h1Z" fill="#000"/><path fill-rule="evenodd" clip-rule="evenodd" d="M17 10a1.75 1.75 0 0 1-1.75 1.75h-1a.75.75 0 0 1 0-1.5h1a.25.25 0 0 0 .25-.25v-1a.75.75 0 0 1 1.5 0v1Z" fill="#000"/><path fill-rule="evenodd" clip-rule="evenodd" d="M11.75 3.75a.75.75 0 0 1-.75.75h-2a.75.75 0 0 1 0-1.5h2a.75.75 0 0 1 .75.75Z" fill="#000"/><path fill-rule="evenodd" clip-rule="evenodd" d="M11.75 11a.75.75 0 0 1-.75.75h-2a.75.75 0 0 1 0-1.5h2a.75.75 0 0 1 .75.75Z" fill="#000"/></svg>
